icon-themes/sifr_svg/cmd/sc_insertobjectdialog.svg

<svg viewBox="0 0 16 16" xmlns="http://www.w3.org/2000/svg"><path d="m8 1a7 7 0 0 0 -7 7 7 7 0 0 0 7 7 7 7 0 0 0 1.9160156-.269531c-.5489315-.200424-1.1020411-.521457-1.609375-1.009766l-.3066406-.294922v-2.425781h3v-3h2.414062l.292969.2929688c.498675.498675.82283 1.0430978 1.025391 1.5996093a7 7 0 0 0 .267578-1.8925781 7 7 0 0 0 -7-7zm4 8v1c1.56 1.6-.566483 3.5-2 2h-1v1c.8.77 1.640782 1 2.400391 1h1.599609l2 2h1v-1l-2-2v-1.599609c0-.9-.2-1.600391-1-2.400391z" fill="#555753"/></svg>

<svg xmlns="http://www.w3.org/2000/svg" viewBox="0 0 16 16">
  <path
     style="fill:#555753"
     d="M 8 1 A 7 7 0 0 0 1 8 A 7 7 0 0 0 8 15 A 7 7 0 0 0 9.9160156 14.730469 C 9.3670841 14.530045 8.8139745 14.209012 8.3066406 13.720703 L 8 13.425781 L 8 11 L 11 11 L 11 8 L 13.414062 8 L 13.707031 8.2929688 C 14.205706 8.7916438 14.529861 9.3360666 14.732422 9.8925781 A 7 7 0 0 0 15 8 A 7 7 0 0 0 8 1 z M 12 9 L 12 10 C 13.56 11.6 11.433517 13.5 10 12 L 9 12 L 9 13 C 9.8 13.77 10.640782 14 11.400391 14 L 13 14 L 15 16 L 16 16 L 16 15 L 14 13 L 14 11.400391 C 14 10.500391 13.8 9.8 13 9 L 12 9 z "
     />
</svg>
